X: 80
T:Running the Goat #3
T:She said she couldn't Dance
T:Ringle Dingle Daddy
R:Polka
Z:Added by alf.warnock@rogers.com
M:2/4
L:1/8
K:G
dB GA|B2 Bc|dB GA|BA A2|
dB GA|B2 Bc|de dB|AG G2:|
|:dd ef|g2g2|dd ef|ed d2|
dd ef|g2 g2|dedB|AG G2:|

